; generated by PrusaSlicer 2.5.0 on 2026-02-28 at 15:12:37 UTC

; 

; external perimeters extrusion width = 0.45mm
; perimeters extrusion width = 0.45mm
; infill extrusion width = 0.45mm
; solid infill extrusion width = 0.45mm
; top infill extrusion width = 0.45mm
; first layer extrusion width = 0.42mm

M73 P0 R12
M107
;TYPE:Custom
M140 S0
M104 S0
START_PRINT EXTRUDER_TEMP=220 BED_TEMP=55
G21 ; set units to millimeters
G90 ; use absolute coordinates
M83 ; use relative distances for extrusion
; Filament-specific start gcode
M107
;LAYER_CHANGE
;Z:0.2
;HEIGHT:0.2
G1 Z.2 F36000
G1 E-.5 F2400
G1 X98.015 Y98.693 F36000
G1 E.5 F2400
M204 S2000
;TYPE:Skirt/Brim
;WIDTH:0.42
G1 F3000
G1 X99.06 Y97.817 E.04278
G1 X100 Y97.623 E.03008
G1 X120 Y97.623 E.62709
G1 X121.307 Y98.015 E.04278
G1 X122.183 Y99.06 E.04278
G1 X122.377 Y100 E.03008
G1 X122.377 Y120 E.62709
G1 X121.985 Y121.307 E.04278
G1 X120.94 Y122.183 E.04278
G1 X120 Y122.377 E.03008
G1 X100 Y122.377 E.62709
G1 X98.693 Y121.985 E.04278
G1 X97.817 Y120.94 E.04278
G1 X97.623 Y120 E.03008
G1 X97.623 Y100 E.62709
G1 X97.997 Y98.75 E.0409
M204 S5000
G1 E-.5 F2400
G1 X100.687 Y100.687 F36000
G1 E.5 F2400
M204 S2000
;TYPE:Perimeter
;WIDTH:0.419999
G1 F3000
G1 X119.313 Y100.687 E.584
G1 X119.313 Y119.313 E.584
G1 X100.687 Y119.313 E.584
G1 X100.687 Y100.747 E.58212
M204 S5000
G1 X100.31 Y100.31 F36000
M204 S2000
;TYPE:External perimeter
G1 F3000
G1 X119.69 Y100.31 E.60765
G1 X119.69 Y119.69 E.60765
G1 X100.31 Y119.69 E.60765
G1 X100.31 Y100.37 E.60576
M204 S5000
G1 X100.696 Y100.414 F36000
G1 E-.5 F2400
G1 X119.2 Y101.564 F36000
G1 E.5 F2400
M204 S2000
;TYPE:Solid infill
;WIDTH:0.420808
G1 F3000
G1 X118.606 Y100.97 E.02641
G1 X118.071 Y100.97 E.01679
G1 X119.03 Y101.929 E.04262
G1 X119.03 Y102.463 E.01679
G1 X117.537 Y100.97 E.06636
G1 X117.002 Y100.97 E.01679
G1 X119.03 Y102.998 E.09011
G1 X119.03 Y103.532 E.01679
G1 X116.468 Y100.97 E.11386
G1 X115.933 Y100.97 E.01679
G1 X119.03 Y104.067 E.13761
G1 X119.03 Y104.601 E.01679
G1 X115.399 Y100.97 E.16135
G1 X114.865 Y100.97 E.01679
G1 X119.03 Y105.135 E.1851
G1 X119.03 Y105.67 E.01679
G1 X114.33 Y100.97 E.20885
G1 X113.796 Y100.97 E.01679
G1 X119.03 Y106.204 E.2326
M73 P1 R12
G1 X119.03 Y106.739 E.01679
G1 X113.261 Y100.97 E.25634
G1 X112.727 Y100.97 E.01679
G1 X119.03 Y107.273 E.28009
G1 X119.03 Y107.807 E.01679
G1 X112.193 Y100.97 E.30384
G1 X111.658 Y100.97 E.01679
G1 X119.03 Y108.342 E.32759
G1 X119.03 Y108.876 E.01679
G1 X111.124 Y100.97 E.35134
G1 X110.589 Y100.97 E.01679
G1 X119.03 Y109.411 E.37508
G1 X119.03 Y109.945 E.01679
G1 X110.055 Y100.97 E.39883
G1 X109.52 Y100.97 E.01679
G1 X119.03 Y110.48 E.42258
G1 X119.03 Y111.014 E.01679
G1 X108.986 Y100.97 E.44633
G1 X108.452 Y100.97 E.01679
G1 X119.03 Y111.548 E.47007
G1 X119.03 Y112.083 E.01679
G1 X107.917 Y100.97 E.49382
G1 X107.383 Y100.97 E.01679
G1 X119.03 Y112.617 E.51757
G1 X119.03 Y113.152 E.01679
G1 X106.848 Y100.97 E.54132
G1 X106.314 Y100.97 E.01679
G1 X119.03 Y113.686 E.56506
G1 X119.03 Y114.22 E.01679
G1 X105.78 Y100.97 E.58881
G1 X105.245 Y100.97 E.01679
G1 X119.03 Y114.755 E.61256
G1 X119.03 Y115.289 E.01679
G1 X104.711 Y100.97 E.63631
G1 X104.176 Y100.97 E.01679
G1 X119.03 Y115.824 E.66005
G1 X119.03 Y116.358 E.01679
G1 X103.642 Y100.97 E.6838
G1 X103.107 Y100.97 E.01679
G1 X119.03 Y116.893 E.70755
G1 X119.03 Y117.427 E.01679
G1 X102.573 Y100.97 E.7313
M73 P2 R12
G1 X102.039 Y100.97 E.01679
G1 X119.03 Y117.961 E.75504
G1 X119.03 Y118.496 E.01679
G1 X101.504 Y100.97 E.77879
G1 X100.97 Y100.97 E.01679
G1 X119.03 Y119.03 E.80254
G1 X118.496 Y119.03 E.01679
G1 X100.97 Y101.504 E.77879
G1 X100.97 Y102.039 E.01679
G1 X117.961 Y119.03 E.75504
G1 X117.427 Y119.03 E.01679
G1 X100.97 Y102.573 E.73129
G1 X100.97 Y103.108 E.01679
G1 X116.892 Y119.03 E.70755
G1 X116.358 Y119.03 E.01679
G1 X100.97 Y103.642 E.6838
G1 X100.97 Y104.176 E.01679
G1 X115.824 Y119.03 E.66005
G1 X115.289 Y119.03 E.01679
G1 X100.97 Y104.711 E.6363
G1 X100.97 Y105.245 E.01679
G1 X114.755 Y119.03 E.61256
G1 X114.22 Y119.03 E.01679
G1 X100.97 Y105.78 E.58881
G1 X100.97 Y106.314 E.01679
G1 X113.686 Y119.03 E.56506
G1 X113.152 Y119.03 E.01679
G1 X100.97 Y106.848 E.54131
G1 X100.97 Y107.383 E.01679
G1 X112.617 Y119.03 E.51757
G1 X112.083 Y119.03 E.01679
G1 X100.97 Y107.917 E.49382
M73 P3 R12
G1 X100.97 Y108.452 E.01679
G1 X111.548 Y119.03 E.47007
G1 X111.014 Y119.03 E.01679
G1 X100.97 Y108.986 E.44632
G1 X100.97 Y109.521 E.01679
G1 X110.479 Y119.03 E.42257
G1 X109.945 Y119.03 E.01679
G1 X100.97 Y110.055 E.39883
G1 X100.97 Y110.589 E.01679
G1 X109.411 Y119.03 E.37508
G1 X108.876 Y119.03 E.01679
G1 X100.97 Y111.124 E.35133
G1 X100.97 Y111.658 E.01679
G1 X108.342 Y119.03 E.32758
G1 X107.807 Y119.03 E.01679
G1 X100.97 Y112.193 E.30384
G1 X100.97 Y112.727 E.01679
G1 X107.273 Y119.03 E.28009
G1 X106.739 Y119.03 E.01679
G1 X100.97 Y113.261 E.25634
G1 X100.97 Y113.796 E.01679
G1 X106.204 Y119.03 E.23259
G1 X105.67 Y119.03 E.01679
G1 X100.97 Y114.33 E.20885
G1 X100.97 Y114.865 E.01679
G1 X105.135 Y119.03 E.1851
G1 X104.601 Y119.03 E.01679
G1 X100.97 Y115.399 E.16135
G1 X100.97 Y115.934 E.01679
G1 X104.066 Y119.03 E.1376
G1 X103.532 Y119.03 E.01679
G1 X100.97 Y116.468 E.11386
G1 X100.97 Y117.002 E.01679
G1 X102.998 Y119.03 E.09011
G1 X102.463 Y119.03 E.01679
G1 X100.97 Y117.537 E.06636
G1 X100.97 Y118.071 E.01679
G1 X101.929 Y119.03 E.04261
G1 X101.394 Y119.03 E.01679
G1 X100.8 Y118.436 E.02641
M204 S5000
M106 S127.5
;LAYER_CHANGE
;Z:0.4
;HEIGHT:0.2
G1 Z.4 F36000
M140 S55 ; set bed temperature
G1 E-.5 F2400
G1 X100.632 Y100.632 F36000
G1 E.5 F2400
;TYPE:Perimeter
;WIDTH:0.449999
G1 F12000
G1 X119.368 Y100.632 E.63419
G1 X119.368 Y119.368 E.63419
G1 X100.632 Y119.368 E.63419
G1 X100.632 Y100.692 E.63215
G1 X100.225 Y100.225 F36000
;TYPE:External perimeter
G1 F12000
G1 X119.775 Y100.225 E.66174
G1 X119.775 Y119.775 E.66174
G1 X100.225 Y119.775 E.66174
G1 X100.225 Y100.285 E.65971
G1 X100.611 Y100.329 F36000
G1 E-.5 F2400
G1 X118.418 Y119.246 F36000
G1 E.5 F2400
M204 S10000
;TYPE:Solid infill
;WIDTH:0.45243
G1 F12000
G1 X119.063 Y118.601 E.03105
G1 X119.063 Y118.022 E.01972
G1 X118.022 Y119.063 E.05012
G1 X117.443 Y119.063 E.01972
G1 X119.063 Y117.443 E.07801
G1 X119.063 Y116.864 E.01972
G1 X116.864 Y119.063 E.1059
G1 X116.284 Y119.063 E.01972
G1 X119.063 Y116.284 E.13379
G1 X119.063 Y115.705 E.01972
G1 X115.705 Y119.063 E.16167
G1 X115.126 Y119.063 E.01972
G1 X119.063 Y115.126 E.18956
G1 X119.063 Y114.547 E.01972
G1 X114.547 Y119.063 E.21745
G1 X113.968 Y119.063 E.01972
G1 X119.063 Y113.968 E.24534
G1 X119.063 Y113.389 E.01972
G1 X113.389 Y119.063 E.27323
M73 P4 R12
G1 X112.81 Y119.063 E.01972
G1 X119.063 Y112.81 E.30112
G1 X119.063 Y112.23 E.01972
G1 X112.23 Y119.063 E.329
G1 X111.651 Y119.063 E.01972
G1 X119.063 Y111.651 E.35689
G1 X119.063 Y111.072 E.01972
G1 X111.072 Y119.063 E.38478
G1 X110.493 Y119.063 E.01972
G1 X119.063 Y110.493 E.41267
G1 X119.063 Y109.914 E.01972
G1 X109.914 Y119.063 E.44056
G1 X109.335 Y119.063 E.01972
G1 X119.063 Y109.335 E.46845
G1 X119.063 Y108.756 E.01972
G1 X108.756 Y119.063 E.49634
G1 X108.177 Y119.063 E.01972
G1 X119.063 Y108.177 E.52422
G1 X119.063 Y107.597 E.01972
G1 X107.597 Y119.063 E.55211
G1 X107.018 Y119.063 E.01972
G1 X119.063 Y107.018 E.58
G1 X119.063 Y106.439 E.01972
G1 X106.439 Y119.063 E.60789
G1 X105.86 Y119.063 E.01972
G1 X119.063 Y105.86 E.63578
G1 X119.063 Y105.281 E.01972
G1 X105.281 Y119.063 E.66367
G1 X104.702 Y119.063 E.01972
G1 X119.063 Y104.702 E.69155
G1 X119.063 Y104.123 E.01972
G1 X104.123 Y119.063 E.71944
G1 X103.543 Y119.063 E.01972
G1 X119.063 Y103.543 E.74733
M73 P4 R11
G1 X119.063 Y102.964 E.01972
G1 X102.964 Y119.063 E.77522
G1 X102.385 Y119.063 E.01972
G1 X119.063 Y102.385 E.80311
G1 X119.063 Y101.806 E.01972
G1 X101.806 Y119.063 E.831
G1 X101.227 Y119.063 E.01972
G1 X119.063 Y101.227 E.85888
G1 X119.063 Y100.937 E.00986
G1 X118.773 Y100.937 E.00986
G1 X100.937 Y118.773 E.85888
G1 X100.937 Y118.194 E.01972
G1 X118.194 Y100.937 E.83099
G1 X117.615 Y100.937 E.01972
G1 X100.937 Y117.615 E.8031
G1 X100.937 Y117.036 E.01972
G1 X117.036 Y100.937 E.77521
G1 X116.456 Y100.937 E.01972
G1 X100.937 Y116.456 E.74733
G1 X100.937 Y115.877 E.01972
G1 X115.877 Y100.937 E.71944
G1 X115.298 Y100.937 E.01972
G1 X100.937 Y115.298 E.69155
G1 X100.937 Y114.719 E.01972
G1 X114.719 Y100.937 E.66366
G1 X114.14 Y100.937 E.01972
G1 X100.937 Y114.14 E.63577
G1 X100.937 Y113.561 E.01972
G1 X113.561 Y100.937 E.60788
G1 X112.982 Y100.937 E.01972
G1 X100.937 Y112.982 E.58
G1 X100.937 Y112.403 E.01972
G1 X112.403 Y100.937 E.55211
M73 P5 R11
G1 X111.823 Y100.937 E.01972
G1 X100.937 Y111.823 E.52422
G1 X100.937 Y111.244 E.01972
G1 X111.244 Y100.937 E.49633
G1 X110.665 Y100.937 E.01972
G1 X100.937 Y110.665 E.46844
G1 X100.937 Y110.086 E.01972
G1 X110.086 Y100.937 E.44055
G1 X109.507 Y100.937 E.01972
G1 X100.937 Y109.507 E.41267
G1 X100.937 Y108.928 E.01972
G1 X108.928 Y100.937 E.38478
G1 X108.349 Y100.937 E.01972
G1 X100.937 Y108.349 E.35689
G1 X100.937 Y107.769 E.01972
G1 X107.769 Y100.937 E.329
G1 X107.19 Y100.937 E.01972
G1 X100.937 Y107.19 E.30111
G1 X100.937 Y106.611 E.01972
G1 X106.611 Y100.937 E.27322
G1 X106.032 Y100.937 E.01972
G1 X100.937 Y106.032 E.24533
G1 X100.937 Y105.453 E.01972
G1 X105.453 Y100.937 E.21745
G1 X104.874 Y100.937 E.01972
G1 X100.937 Y104.874 E.18956
G1 X100.937 Y104.295 E.01972
G1 X104.295 Y100.937 E.16167
G1 X103.716 Y100.937 E.01972
G1 X100.937 Y103.716 E.13378
G1 X100.937 Y103.136 E.01972
G1 X103.136 Y100.937 E.10589
G1 X102.557 Y100.937 E.01972
G1 X100.937 Y102.557 E.078
G1 X100.937 Y101.978 E.01972
G1 X101.978 Y100.937 E.05012
G1 X101.399 Y100.937 E.01972
G1 X100.754 Y101.582 E.03105
M204 S5000
M106 S255
;LAYER_CHANGE
;Z:0.6
;HEIGHT:0.2
G1 Z.6 F36000
G1 X100.632 Y100.632
;TYPE:Perimeter
;WIDTH:0.449999
G1 F12000
G1 X119.368 Y100.632 E.63419
G1 X119.368 Y119.368 E.63419
G1 X100.632 Y119.368 E.63419
G1 X100.632 Y100.692 E.63215
G1 X100.225 Y100.225 F36000
;TYPE:External perimeter
G1 F12000
G1 X119.775 Y100.225 E.66174
G1 X119.775 Y119.775 E.66174
G1 X100.225 Y119.775 E.66174
G1 X100.225 Y100.285 E.65971
G1 X100.611 Y100.329 F36000
G1 E-.5 F2400
G1 X119.246 Y101.582 F36000
G1 E.5 F2400
M204 S10000
;TYPE:Solid infill
;WIDTH:0.45243
G1 F12000
G1 X118.601 Y100.937 E.03105
G1 X118.022 Y100.937 E.01972
G1 X119.063 Y101.978 E.05012
G1 X119.063 Y102.557 E.01972
G1 X117.443 Y100.937 E.07801
G1 X116.864 Y100.937 E.01972
G1 X119.063 Y103.136 E.1059
G1 X119.063 Y103.716 E.01972
G1 X116.284 Y100.937 E.13379
G1 X115.705 Y100.937 E.01972
G1 X119.063 Y104.295 E.16167
G1 X119.063 Y104.874 E.01972
G1 X115.126 Y100.937 E.18956
G1 X114.547 Y100.937 E.01972
G1 X119.063 Y105.453 E.21745
G1 X119.063 Y106.032 E.01972
G1 X113.968 Y100.937 E.24534
G1 X113.389 Y100.937 E.01972
G1 X119.063 Y106.611 E.27323
G1 X119.063 Y107.19 E.01972
G1 X112.81 Y100.937 E.30112
G1 X112.23 Y100.937 E.01972
G1 X119.063 Y107.77 E.329
G1 X119.063 Y108.349 E.01972
G1 X111.651 Y100.937 E.35689
G1 X111.072 Y100.937 E.01972
G1 X119.063 Y108.928 E.38478
G1 X119.063 Y109.507 E.01972
G1 X110.493 Y100.937 E.41267
G1 X109.914 Y100.937 E.01972
G1 X119.063 Y110.086 E.44056
G1 X119.063 Y110.665 E.01972
G1 X109.335 Y100.937 E.46845
G1 X108.756 Y100.937 E.01972
M73 P6 R11
G1 X119.063 Y111.244 E.49634
G1 X119.063 Y111.823 E.01972
G1 X108.177 Y100.937 E.52422
G1 X107.597 Y100.937 E.01972
G1 X119.063 Y112.403 E.55211
G1 X119.063 Y112.982 E.01972
G1 X107.018 Y100.937 E.58
G1 X106.439 Y100.937 E.01972
G1 X119.063 Y113.561 E.60789
G1 X119.063 Y114.14 E.01972
G1 X105.86 Y100.937 E.63578
G1 X105.281 Y100.937 E.01972
G1 X119.063 Y114.719 E.66367
G1 X119.063 Y115.298 E.01972
G1 X104.702 Y100.937 E.69155
G1 X104.123 Y100.937 E.01972
G1 X119.063 Y115.877 E.71944
G1 X119.063 Y116.457 E.01972
G1 X103.543 Y100.937 E.74733
G1 X102.964 Y100.937 E.01972
G1 X119.063 Y117.036 E.77522
G1 X119.063 Y117.615 E.01972
G1 X102.385 Y100.937 E.80311
G1 X101.806 Y100.937 E.01972
G1 X119.063 Y118.194 E.831
G1 X119.063 Y118.773 E.01972
G1 X101.227 Y100.937 E.85888
G1 X100.937 Y100.937 E.00986
G1 X100.937 Y101.227 E.00986
G1 X118.773 Y119.063 E.85888
G1 X118.194 Y119.063 E.01972
G1 X100.937 Y101.806 E.83099
G1 X100.937 Y102.385 E.01972
G1 X117.615 Y119.063 E.8031
G1 X117.036 Y119.063 E.01972
G1 X100.937 Y102.964 E.77521
G1 X100.937 Y103.544 E.01972
G1 X116.456 Y119.063 E.74733
G1 X115.877 Y119.063 E.01972
G1 X100.937 Y104.123 E.71944
G1 X100.937 Y104.702 E.01972
G1 X115.298 Y119.063 E.69155
G1 X114.719 Y119.063 E.01972
G1 X100.937 Y105.281 E.66366
G1 X100.937 Y105.86 E.01972
G1 X114.14 Y119.063 E.63577
G1 X113.561 Y119.063 E.01972
G1 X100.937 Y106.439 E.60788
G1 X100.937 Y107.018 E.01972
G1 X112.982 Y119.063 E.58
G1 X112.403 Y119.063 E.01972
G1 X100.937 Y107.597 E.55211
G1 X100.937 Y108.177 E.01972
G1 X111.823 Y119.063 E.52422
G1 X111.244 Y119.063 E.01972
G1 X100.937 Y108.756 E.49633
G1 X100.937 Y109.335 E.01972
G1 X110.665 Y119.063 E.46844
G1 X110.086 Y119.063 E.01972
G1 X100.937 Y109.914 E.44055
G1 X100.937 Y110.493 E.01972
G1 X109.507 Y119.063 E.41266
G1 X108.928 Y119.063 E.01972
G1 X100.937 Y111.072 E.38478
G1 X100.937 Y111.651 E.01972
G1 X108.349 Y119.063 E.35689
M73 P7 R11
G1 X107.769 Y119.063 E.01972
G1 X100.937 Y112.231 E.329
G1 X100.937 Y112.81 E.01972
G1 X107.19 Y119.063 E.30111
G1 X106.611 Y119.063 E.01972
G1 X100.937 Y113.389 E.27322
G1 X100.937 Y113.968 E.01972
G1 X106.032 Y119.063 E.24533
G1 X105.453 Y119.063 E.01972
G1 X100.937 Y114.547 E.21745
G1 X100.937 Y115.126 E.01972
G1 X104.874 Y119.063 E.18956
G1 X104.295 Y119.063 E.01972
G1 X100.937 Y115.705 E.16167
G1 X100.937 Y116.284 E.01972
G1 X103.716 Y119.063 E.13378
G1 X103.136 Y119.063 E.01972
G1 X100.937 Y116.864 E.10589
G1 X100.937 Y117.443 E.01972
G1 X102.557 Y119.063 E.078
G1 X101.978 Y119.063 E.01972
G1 X100.937 Y118.022 E.05012
G1 X100.937 Y118.601 E.01972
G1 X101.582 Y119.246 E.03105
M204 S5000
;LAYER_CHANGE
;Z:0.8
;HEIGHT:0.2
G1 Z.8 F36000
G1 E-.5 F2400
G1 X100.632 Y100.632 F36000
G1 E.5 F2400
;TYPE:Perimeter
;WIDTH:0.449999
G1 F3627
G1 X119.368 Y100.632 E.63419
G1 X119.368 Y119.368 E.63419
G1 X100.632 Y119.368 E.63419
G1 X100.632 Y100.692 E.63215
G1 X100.225 Y100.225 F36000
;TYPE:External perimeter
G1 F3627
G1 X119.775 Y100.225 E.66174
G1 X119.775 Y119.775 E.66174
G1 X100.225 Y119.775 E.66174
G1 X100.225 Y100.285 E.65971
G1 X100.611 Y100.329 F36000
G1 E-.5 F2400
G1 X100.937 Y117.874 F36000
G1 E.5 F2400
M204 S10000
;TYPE:Internal infill
;WIDTH:0.45
G1 F3627
G1 X100.937 Y119.063 E.04023
G1 X102.191 Y119.063 E.04245
G1 X101.982 Y118.736 E.01315
G1 X101.652 Y117.862 E.03161
G1 X101.592 Y117.425 E.01492
G1 X101.825 Y116.988 E.01675
G1 X102.639 Y116.552 E.03128
G1 X103.33 Y116.115 E.02767
G1 X103.761 Y115.678 E.02078
G1 X104.041 Y115.241 E.01756
G1 X104.371 Y114.368 E.03161
G1 X104.431 Y113.931 E.01492
G1 X104.198 Y113.494 E.01675
G1 X103.384 Y113.057 E.03128
G1 X102.693 Y112.621 E.02767
G1 X102.262 Y112.184 E.02078
G1 X101.982 Y111.747 E.01756
G1 X101.652 Y110.874 E.03161
G1 X101.592 Y110.437 E.01492
G1 X101.825 Y110 E.01675
G1 X102.639 Y109.563 E.03128
G1 X103.33 Y109.126 E.02767
G1 X103.761 Y108.69 E.02078
G1 X104.041 Y108.253 E.01756
G1 X104.371 Y107.379 E.03161
G1 X104.431 Y106.943 E.01492
G1 X104.198 Y106.506 E.01675
G1 X103.384 Y106.069 E.03128
G1 X102.693 Y105.632 E.02767
G1 X102.262 Y105.195 E.02078
G1 X101.982 Y104.759 E.01756
G1 X101.652 Y103.885 E.03161
G1 X101.592 Y103.448 E.01492
G1 X101.825 Y103.012 E.01675
G1 X102.639 Y102.575 E.03128
G1 X103.33 Y102.138 E.02767
G1 X103.761 Y101.701 E.02078
G1 X104.041 Y101.264 E.01756
G1 X104.165 Y100.937 E.01184
G1 X107.326 Y100.937 E.107
G1 X107.536 Y101.264 E.01315
G1 X107.866 Y102.138 E.03161
G1 X107.925 Y102.575 E.01492
G1 X107.693 Y103.012 E.01675
G1 X106.878 Y103.448 E.03128
G1 X106.187 Y103.885 E.02767
G1 X105.756 Y104.322 E.02078
G1 X105.476 Y104.759 E.01756
G1 X105.146 Y105.632 E.03161
G1 X105.087 Y106.069 E.01492
G1 X105.319 Y106.506 E.01675
G1 X106.133 Y106.943 E.03128
G1 X106.824 Y107.379 E.02767
G1 X107.256 Y107.816 E.02078
G1 X107.536 Y108.253 E.01756
G1 X107.866 Y109.126 E.03161
