; generated by PrusaSlicer 2.5.0 on 2026-02-28 at 15:08:42 UTC

; 

; external perimeters extrusion width = 0.45mm
; perimeters extrusion width = 0.45mm
; infill extrusion width = 0.45mm
; solid infill extrusion width = 0.45mm
; top infill extrusion width = 0.40mm
; first layer extrusion width = 0.70mm

M107
M104 S200 ; set temperature
;TYPE:Custom
$M140 S0\nM104 S0\nSTART_PRINT EXTRUDER_TEMP=220 BED_TEMP=55
M109 S200 ; set temperature and wait for it to be reached
G21 ; set units to millimeters
G90 ; use absolute coordinates
M82 ; use absolute distances for extrusion
G92 E0
; Filament gcode
M107
;LAYER_CHANGE
;Z:0.35
;HEIGHT:0.35
G1 Z.35 F7800
G1 E-2 F2400
G92 E0
G1 X84.915 Y85.753 F7800
G1 E2 F2400
;TYPE:Skirt/Brim
;WIDTH:0.7
G1 F1800
G1 X86.668 Y84.274 E2.20854
G1 X88.82 Y83.481 E2.41708
G1 X90 Y83.375 E2.52479
G1 X110 Y83.375 E4.34339
G1 X112.259 Y83.772 E4.55193
G1 X114.247 Y84.915 E4.76047
G1 X115.726 Y86.668 E4.96901
G1 X116.519 Y88.82 E5.17756
G1 X116.625 Y90 E5.28526
G1 X116.625 Y110 E7.10386
G1 X116.228 Y112.259 E7.3124
G1 X115.085 Y114.247 E7.52094
G1 X113.332 Y115.726 E7.72948
G1 X111.18 Y116.519 E7.93803
G1 X110 Y116.625 E8.04573
G1 X90 Y116.625 E9.86433
G1 X87.741 Y116.228 E10.07287
G1 X85.753 Y115.085 E10.28141
G1 X84.274 Y113.332 E10.48995
G1 X83.481 Y111.18 E10.6985
G1 X83.375 Y110 E10.8062
G1 X83.375 Y90 E12.6248
G1 X83.772 Y87.741 E12.83334
G1 X84.886 Y85.805 E13.03642
G1 E11.03642 F2400
G92 E0
G1 X91.6 Y91.6 F7800
G1 E2 F2400
;TYPE:Perimeter
;WIDTH:0.7
G1 F1800
G1 X108.4 Y91.6 E3.52766
G1 X108.4 Y108.4 E5.05531
G1 X91.6 Y108.4 E6.58297
G1 X91.6 Y91.66 E8.10517
G1 X90.975 Y90.975 F7800
G1 F1800
G1 X109.025 Y90.975 E9.74647
G1 X109.025 Y109.025 E11.38777
G1 X90.975 Y109.025 E13.02907
G1 X90.975 Y91.035 E14.66491
G1 X90.35 Y90.35 F7800
;TYPE:External perimeter
G1 F1800
G1 X109.65 Y90.35 E16.41985
G1 X109.65 Y109.65 E18.17479
G1 X90.35 Y109.65 E19.92973
G1 X90.35 Y90.41 E21.67921
G1 X90.736 Y90.454 F7800
G1 E19.67921 F2400
G92 E0
G1 X108.213 Y93.062 F7800
G1 E2 F2400
;TYPE:Solid infill
;WIDTH:0.705316
G1 F1800
G1 X107.22 Y92.068 E2.12881
G1 X106.328 Y92.068 E2.21054
G1 X107.932 Y93.672 E2.41847
G1 X107.932 Y94.563 E2.5002
G1 X105.437 Y92.068 E2.82371
G1 X104.546 Y92.068 E2.90544
G1 X107.932 Y95.454 E3.34453
G1 X107.932 Y96.345 E3.42626
G1 X103.655 Y92.068 E3.98094
G1 X102.763 Y92.068 E4.06267
G1 X107.932 Y97.237 E4.73293
G1 X107.932 Y98.128 E4.81466
G1 X101.872 Y92.068 E5.60051
G1 X100.981 Y92.068 E5.68224
G1 X107.932 Y99.019 E6.58367
G1 X107.932 Y99.91 E6.6654
G1 X100.09 Y92.068 E7.68241
G1 X99.198 Y92.068 E7.76414
G1 X107.932 Y100.802 E8.89673
G1 X107.932 Y101.693 E8.97846
G1 X98.307 Y92.068 E10.22664
G1 X97.416 Y92.068 E10.30837
G1 X107.932 Y102.584 E11.67213
G1 X107.932 Y103.475 E11.75386
G1 X96.525 Y92.068 E13.23321
G1 X95.633 Y92.068 E13.31494
G1 X107.932 Y104.367 E14.90987
G1 X107.932 Y105.258 E14.9916
G1 X94.742 Y92.068 E16.70211
G1 X93.851 Y92.068 E16.78384
G1 X107.932 Y106.149 E18.60994
G1 X107.932 Y107.04 E18.69167
G1 X92.96 Y92.068 E20.63335
G1 X92.068 Y92.068 E20.71507
G1 X107.932 Y107.932 E22.77232
G1 X107.04 Y107.932 E22.85405
G1 X92.068 Y92.96 E24.79571
G1 X92.068 Y93.851 E24.87744
G1 X106.149 Y107.932 E26.70352
G1 X105.258 Y107.932 E26.78525
G1 X92.068 Y94.742 E28.49575
G1 X92.068 Y95.633 E28.57747
G1 X104.367 Y107.932 E30.17239
G1 X103.475 Y107.932 E30.25412
G1 X92.068 Y96.525 E31.73344
G1 X92.068 Y97.416 E31.81517
G1 X102.584 Y107.932 E33.17892
G1 X101.693 Y107.932 E33.26065
G1 X92.068 Y98.307 E34.50881
G1 X92.068 Y99.198 E34.59054
G1 X100.802 Y107.932 E35.72312
G1 X99.91 Y107.932 E35.80485
G1 X92.068 Y100.09 E36.82184
G1 X92.068 Y100.981 E36.90357
G1 X99.019 Y107.932 E37.80498
G1 X98.128 Y107.932 E37.88671
G1 X92.068 Y101.872 E38.67254
G1 X92.068 Y102.763 E38.75427
G1 X97.237 Y107.932 E39.42451
G1 X96.345 Y107.932 E39.50624
G1 X92.068 Y103.655 E40.0609
G1 X92.068 Y104.546 E40.14263
G1 X95.454 Y107.932 E40.58171
G1 X94.563 Y107.932 E40.66344
G1 X92.068 Y105.437 E40.98693
G1 X92.068 Y106.328 E41.06866
G1 X93.672 Y107.932 E41.27657
G1 X92.78 Y107.932 E41.3583
G1 X91.787 Y106.938 E41.4871
;LAYER_CHANGE
;Z:0.65
;HEIGHT:0.3
G1 Z.65 F7800
G1 E39.4871 F2400
G92 E0
G1 X90.996 Y90.996 F7800
G1 E2 F2400
;TYPE:Perimeter
;WIDTH:0.45
G1 F3600
G1 X109.004 Y90.996 E2.8661
G1 X109.004 Y109.004 E3.7322
G1 X90.996 Y109.004 E4.5983
G1 X90.996 Y91.056 E5.46151
G1 X90.611 Y90.611 F7800
G1 F3600
G1 X109.389 Y90.611 E6.36471
G1 X109.389 Y109.389 E7.2679
G1 X90.611 Y109.389 E8.17109
G1 X90.611 Y90.671 E9.0714
G1 X90.225 Y90.225 F7800
;TYPE:External perimeter
G1 F1800
G1 X109.775 Y90.225 E10.01169
G1 X109.775 Y109.775 E10.95197
G1 X90.225 Y109.775 E11.89226
G1 X90.225 Y90.285 E12.82966
G1 X90.611 Y90.329 F7800
G1 E10.82966 F2400
G92 E0
G1 X108.888 Y108.104 F7800
G1 E2 F2400
;TYPE:Solid infill
;WIDTH:0.451978
G1 F1200
G1 X108.278 Y108.715 E2.04172
G1 X107.73 Y108.715 E2.06822
G1 X108.715 Y107.73 E2.13555
G1 X108.715 Y107.182 E2.16205
G1 X107.182 Y108.715 E2.26685
G1 X106.633 Y108.715 E2.29335
G1 X108.715 Y106.633 E2.43563
G1 X108.715 Y106.085 E2.46213
G1 X106.085 Y108.715 E2.64188
G1 X105.537 Y108.715 E2.66838
G1 X108.715 Y105.537 E2.88561
G1 X108.715 Y104.989 E2.91211
G1 X104.989 Y108.715 E3.16682
G1 X104.441 Y108.715 E3.19332
G1 X108.715 Y104.441 E3.4855
G1 X108.715 Y103.893 E3.512
G1 X103.893 Y108.715 E3.84166
G1 X103.345 Y108.715 E3.86816
G1 X108.715 Y103.345 E4.23529
G1 X108.715 Y102.796 E4.26179
G1 X102.796 Y108.715 E4.66639
G1 X102.248 Y108.715 E4.69289
G1 X108.715 Y102.248 E5.13498
G1 X108.715 Y101.7 E5.16148
G1 X101.7 Y108.715 E5.64103
G1 X101.152 Y108.715 E5.66753
G1 X108.715 Y101.152 E6.18457
G1 X108.715 Y100.604 E6.21107
G1 X100.604 Y108.715 E6.76558
G1 X100.056 Y108.715 E6.79208
G1 X108.715 Y100.056 E7.38406
G1 X108.715 Y99.508 E7.41056
G1 X99.508 Y108.715 E8.04002
G1 X98.959 Y108.715 E8.06652
G1 X108.715 Y98.959 E8.73345
G1 X108.715 Y98.411 E8.75995
G1 X98.411 Y108.715 E9.46436
G1 X97.863 Y108.715 E9.49086
G1 X108.715 Y97.863 E10.23275
G1 X108.715 Y97.315 E10.25925
G1 X97.315 Y108.715 E11.03861
G1 X96.767 Y108.715 E11.06511
G1 X108.715 Y96.767 E11.88195
G1 X108.715 Y96.219 E11.90845
G1 X96.219 Y108.715 E12.76276
G1 X95.671 Y108.715 E12.78926
G1 X108.715 Y95.671 E13.68104
G1 X108.715 Y95.122 E13.70754
G1 X95.122 Y108.715 E14.63681
G1 X94.574 Y108.715 E14.66331
G1 X108.715 Y94.574 E15.63004
G1 X108.715 Y94.026 E15.65654
G1 X94.026 Y108.715 E16.66076
G1 X93.478 Y108.715 E16.68726
G1 X108.715 Y93.478 E17.72895
G1 X108.715 Y92.93 E17.75544
G1 X92.93 Y108.715 E18.83461
G1 X92.382 Y108.715 E18.86111
G1 X108.715 Y92.382 E19.97775
G1 X108.715 Y91.834 E20.00425
G1 X91.834 Y108.715 E21.15836
G1 X91.285 Y108.715 E21.18486
G1 X108.715 Y91.285 E22.37645
G1 X108.166 Y91.285 E22.40295
G1 X91.285 Y108.166 E23.55706
G1 X91.285 Y107.618 E23.58355
G1 X107.618 Y91.285 E24.70019
G1 X107.07 Y91.285 E24.72669
G1 X91.285 Y107.07 E25.80585
G1 X91.285 Y106.522 E25.83235
G1 X106.522 Y91.285 E26.87403
G1 X105.974 Y91.285 E26.90053
G1 X91.285 Y105.974 E27.90474
G1 X91.285 Y105.426 E27.93124
G1 X105.426 Y91.285 E28.89797
G1 X104.878 Y91.285 E28.92447
G1 X91.285 Y104.878 E29.85373
G1 X91.285 Y104.329 E29.88022
G1 X104.329 Y91.285 E30.77201
G1 X103.781 Y91.285 E30.79851
G1 X91.285 Y103.781 E31.65281
G1 X91.285 Y103.233 E31.67931
G1 X103.233 Y91.285 E32.49614
G1 X102.685 Y91.285 E32.52264
G1 X91.285 Y102.685 E33.302
G1 X91.285 Y102.137 E33.3285
G1 X102.137 Y91.285 E34.07038
G1 X101.589 Y91.285 E34.09688
G1 X91.285 Y101.589 E34.80128
G1 X91.285 Y101.04 E34.82778
G1 X101.04 Y91.285 E35.49471
G1 X100.492 Y91.285 E35.52121
G1 X91.285 Y100.492 E36.15066
G1 X91.285 Y99.944 E36.17716
G1 X99.944 Y91.285 E36.76914
G1 X99.396 Y91.285 E36.79564
G1 X91.285 Y99.396 E37.35014
G1 X91.285 Y98.848 E37.37664
G1 X98.848 Y91.285 E37.89367
G1 X98.3 Y91.285 E37.92017
G1 X91.285 Y98.3 E38.39972
G1 X91.285 Y97.752 E38.42622
G1 X97.752 Y91.285 E38.8683
G1 X97.203 Y91.285 E38.8948
G1 X91.285 Y97.203 E39.2994
G1 X91.285 Y96.655 E39.3259
G1 X96.655 Y91.285 E39.69303
G1 X96.107 Y91.285 E39.71953
G1 X91.285 Y96.107 E40.04918
G1 X91.285 Y95.559 E40.07568
G1 X95.559 Y91.285 E40.36785
G1 X95.011 Y91.285 E40.39435
G1 X91.285 Y95.011 E40.64905
G1 X91.285 Y94.463 E40.67555
G1 X94.463 Y91.285 E40.89278
G1 X93.915 Y91.285 E40.91927
G1 X91.285 Y93.915 E41.09902
G1 X91.285 Y93.366 E41.12552
G1 X93.366 Y91.285 E41.2678
G1 X92.818 Y91.285 E41.2943
G1 X91.285 Y92.818 E41.3991
G1 X91.285 Y92.27 E41.4256
G1 X92.27 Y91.285 E41.49292
G1 X91.722 Y91.285 E41.51942
G1 X91.112 Y91.896 E41.56113
;LAYER_CHANGE
;Z:0.95
;HEIGHT:0.3
G1 Z.95 F7800
G1 X90.996 Y90.996
;TYPE:Perimeter
;WIDTH:0.45
G1 F3600
G1 X109.004 Y90.996 E42.42723
G1 X109.004 Y109.004 E43.29333
G1 X90.996 Y109.004 E44.15943
G1 X90.996 Y91.056 E45.02264
G1 X90.611 Y90.611 F7800
G1 F3600
G1 X109.389 Y90.611 E45.92583
G1 X109.389 Y109.389 E46.82903
G1 X90.611 Y109.389 E47.73222
G1 X90.611 Y90.671 E48.63253
G1 X90.225 Y90.225 F7800
;TYPE:External perimeter
G1 F1800
G1 X109.775 Y90.225 E49.57282
G1 X109.775 Y109.775 E50.5131
G1 X90.225 Y109.775 E51.45339
G1 X90.225 Y90.285 E52.39079
G1 X90.611 Y90.329 F7800
G1 E50.39079 F2400
G92 E0
G1 X108.888 Y91.896 F7800
G1 E2 F2400
;TYPE:Solid infill
;WIDTH:0.451978
G1 F1200
G1 X108.278 Y91.285 E2.04172
G1 X107.73 Y91.285 E2.06822
G1 X108.715 Y92.27 E2.13555
G1 X108.715 Y92.818 E2.16205
G1 X107.182 Y91.285 E2.26685
G1 X106.633 Y91.285 E2.29335
G1 X108.715 Y93.367 E2.43563
G1 X108.715 Y93.915 E2.46213
G1 X106.085 Y91.285 E2.64188
G1 X105.537 Y91.285 E2.66838
G1 X108.715 Y94.463 E2.88561
G1 X108.715 Y95.011 E2.91211
G1 X104.989 Y91.285 E3.16682
G1 X104.441 Y91.285 E3.19332
G1 X108.715 Y95.559 E3.4855
G1 X108.715 Y96.107 E3.512
G1 X103.893 Y91.285 E3.84166
G1 X103.345 Y91.285 E3.86816
G1 X108.715 Y96.655 E4.23529
G1 X108.715 Y97.204 E4.26179
G1 X102.796 Y91.285 E4.66639
G1 X102.248 Y91.285 E4.69289
G1 X108.715 Y97.752 E5.13498
G1 X108.715 Y98.3 E5.16148
G1 X101.7 Y91.285 E5.64103
G1 X101.152 Y91.285 E5.66753
G1 X108.715 Y98.848 E6.18457
G1 X108.715 Y99.396 E6.21107
G1 X100.604 Y91.285 E6.76558
G1 X100.056 Y91.285 E6.79207
G1 X108.715 Y99.944 E7.38406
G1 X108.715 Y100.492 E7.41056
G1 X99.508 Y91.285 E8.04002
G1 X98.959 Y91.285 E8.06652
G1 X108.715 Y101.041 E8.73345
G1 X108.715 Y101.589 E8.75995
G1 X98.411 Y91.285 E9.46436
G1 X97.863 Y91.285 E9.49086
G1 X108.715 Y102.137 E10.23275
G1 X108.715 Y102.685 E10.25925
G1 X97.315 Y91.285 E11.03861
G1 X96.767 Y91.285 E11.06511
G1 X108.715 Y103.233 E11.88195
G1 X108.715 Y103.781 E11.90844
G1 X96.219 Y91.285 E12.76276
G1 X95.671 Y91.285 E12.78926
G1 X108.715 Y104.329 E13.68104
G1 X108.715 Y104.878 E13.70754
G1 X95.122 Y91.285 E14.63681
G1 X94.574 Y91.285 E14.66331
G1 X108.715 Y105.426 E15.63004
G1 X108.715 Y105.974 E15.65654
G1 X94.026 Y91.285 E16.66076
G1 X93.478 Y91.285 E16.68726
G1 X108.715 Y106.522 E17.72895
G1 X108.715 Y107.07 E17.75544
G1 X92.93 Y91.285 E18.83461
G1 X92.382 Y91.285 E18.86111
G1 X108.715 Y107.618 E19.97775
G1 X108.715 Y108.166 E20.00425
G1 X91.834 Y91.285 E21.15836
G1 X91.285 Y91.285 E21.18486
G1 X108.715 Y108.715 E22.37645
G1 X108.166 Y108.715 E22.40295
G1 X91.285 Y91.834 E23.55706
G1 X91.285 Y92.382 E23.58355
G1 X107.618 Y108.715 E24.70019
G1 X107.07 Y108.715 E24.72669
G1 X91.285 Y92.93 E25.80585
G1 X91.285 Y93.478 E25.83235
G1 X106.522 Y108.715 E26.87403
G1 X105.974 Y108.715 E26.90053
G1 X91.285 Y94.026 E27.90474
G1 X91.285 Y94.574 E27.93124
G1 X105.426 Y108.715 E28.89797
G1 X104.878 Y108.715 E28.92447
G1 X91.285 Y95.122 E29.85372
G1 X91.285 Y95.671 E29.88022
G1 X104.329 Y108.715 E30.77201
G1 X103.781 Y108.715 E30.79851
G1 X91.285 Y96.219 E31.65281
G1 X91.285 Y96.767 E31.67931
G1 X103.233 Y108.715 E32.49614
G1 X102.685 Y108.715 E32.52264
G1 X91.285 Y97.315 E33.302
G1 X91.285 Y97.863 E33.3285
G1 X102.137 Y108.715 E34.07038
G1 X101.589 Y108.715 E34.09688
G1 X91.285 Y98.411 E34.80128
G1 X91.285 Y98.96 E34.82778
G1 X101.04 Y108.715 E35.49471
G1 X100.492 Y108.715 E35.52121
G1 X91.285 Y99.508 E36.15066
G1 X91.285 Y100.056 E36.17716
G1 X99.944 Y108.715 E36.76914
G1 X99.396 Y108.715 E36.79564
G1 X91.285 Y100.604 E37.35014
G1 X91.285 Y101.152 E37.37664
G1 X98.848 Y108.715 E37.89367
G1 X98.3 Y108.715 E37.92017
G1 X91.285 Y101.7 E38.39972
G1 X91.285 Y102.248 E38.42622
G1 X97.752 Y108.715 E38.8683
G1 X97.203 Y108.715 E38.8948
G1 X91.285 Y102.797 E39.2994
G1 X91.285 Y103.345 E39.3259
G1 X96.655 Y108.715 E39.69303
G1 X96.107 Y108.715 E39.71953
G1 X91.285 Y103.893 E40.04918
G1 X91.285 Y104.441 E40.07568
G1 X95.559 Y108.715 E40.36785
G1 X95.011 Y108.715 E40.39435
G1 X91.285 Y104.989 E40.64905
G1 X91.285 Y105.537 E40.67555
G1 X94.463 Y108.715 E40.89278
G1 X93.915 Y108.715 E40.91927
G1 X91.285 Y106.085 E41.09902
G1 X91.285 Y106.634 E41.12552
G1 X93.366 Y108.715 E41.2678
G1 X92.818 Y108.715 E41.2943
G1 X91.285 Y107.182 E41.3991
G1 X91.285 Y107.73 E41.42559
G1 X92.27 Y108.715 E41.49292
G1 X91.722 Y108.715 E41.51942
G1 X91.112 Y108.104 E41.56113
M106 S244.8
;LAYER_CHANGE
;Z:1.25
;HEIGHT:0.3
G1 Z1.25 F7800
G1 E39.56113 F2400
G92 E0
G1 X90.996 Y90.996 F7800
G1 E2 F2400
;TYPE:Perimeter
;WIDTH:0.45
G1 F3600
G1 X109.004 Y90.996 E2.8661
G1 X109.004 Y109.004 E3.7322
G1 X90.996 Y109.004 E4.5983
G1 X90.996 Y91.056 E5.46151
G1 X90.611 Y90.611 F7800
G1 F3600
G1 X109.389 Y90.611 E6.36471
G1 X109.389 Y109.389 E7.2679
G1 X90.611 Y109.389 E8.17109
G1 X90.611 Y90.671 E9.0714
G1 X90.225 Y90.225 F7800
;TYPE:External perimeter
G1 F1800
G1 X109.775 Y90.225 E10.01169
G1 X109.775 Y109.775 E10.95197
G1 X90.225 Y109.775 E11.89226
G1 X90.225 Y90.285 E12.82966
G1 X90.611 Y90.329 F7800
G1 E10.82966 F2400
G92 E0
G1 X94.033 Y91.285 F7800
G1 E2 F2400
;TYPE:Internal infill
;WIDTH:0.45
G1 F4800
G1 X96.347 Y91.285 E2.11128
G1 X91.677 Y108.715 E2.97913
G1 X92.354 Y108.715 E3.01172
G1 X91.285 Y107.646 E3.08441
G1 X91.285 Y105.329 E3.19583
G1 X108.715 Y100.659 E4.06368
G1 X108.715 Y100.534 E4.06968
G1 X99.466 Y91.285 E4.69878
G1 X99 Y91.285 E4.72118
G1 X91.285 Y93.353 E5.10531
G1 X91.285 Y91.285 E5.20473
G1 X108.715 Y108.715 E6.39024
G1 X108.715 Y106.647 E6.48966
G1 X101 Y108.715 E6.87379
G1 X100.534 Y108.715 E6.89619
G1 X91.285 Y99.466 E7.52529
G1 X91.285 Y99.341 E7.53129
G1 X108.715 Y94.671 E8.39914
G1 X108.715 Y92.354 E8.51057
G1 X107.646 Y91.285 E8.58325
G1 X108.323 Y91.285 E8.61584
G1 X103.653 Y108.715 E9.48369
G1 X105.967 Y108.715 E9.59497
G1 E7.59497 F2400
G92 E0
G1 X95.351 Y108.715 F7800
G1 E2 F2400
G1 F4800
G1 X97.665 Y108.715 E2.11128
G1 X102.335 Y91.285 E2.97913
G1 X104.649 Y91.285 E3.09042
;LAYER_CHANGE
;Z:1.55
;HEIGHT:0.3
G1 Z1.55 F7800
G1 E1.09042 F2400
G92 E0
G1 X90.996 Y90.996 F7800
G1 E2 F2400
;TYPE:Perimeter
;WIDTH:0.45
G1 F3600
G1 X109.004 Y90.996 E2.8661
G1 X109.004 Y109.004 E3.7322
G1 X90.996 Y109.004 E4.5983
G1 X90.996 Y91.056 E5.46151
G1 X90.611 Y90.611 F7800
G1 F3600
G1 X109.389 Y90.611 E6.36471
G1 X109.389 Y109.389 E7.2679
G1 X90.611 Y109.389 E8.17109
G1 X90.611 Y90.671 E9.0714
G1 X90.225 Y90.225 F7800
;TYPE:External perimeter
G1 F1800
G1 X109.775 Y90.225 E10.01169
G1 X109.775 Y109.775 E10.95197
G1 X90.225 Y109.775 E11.89226
G1 X90.225 Y90.285 E12.82966
G1 X90.611 Y90.329 F7800
G1 E10.82966 F2400
G92 E0
G1 X94.033 Y91.285 F7800
G1 E2 F2400
;TYPE:Internal infill
;WIDTH:0.45
G1 F4800
G1 X96.347 Y91.285 E2.11128
G1 X91.677 Y108.715 E2.97913
G1 X92.354 Y108.715 E3.01172
G1 X91.285 Y107.646 E3.08441
G1 X91.285 Y105.329 E3.19583
G1 X108.715 Y100.659 E4.06368
G1 X108.715 Y100.534 E4.06968
G1 X99.466 Y91.285 E4.69878
G1 X99 Y91.285 E4.72118
G1 X91.285 Y93.353 E5.10531
G1 X91.285 Y91.285 E5.20473
G1 X108.715 Y108.715 E6.39024
G1 X108.715 Y106.647 E6.48966
G1 X101 Y108.715 E6.87379
G1 X100.534 Y108.715 E6.89619
G1 X91.285 Y99.466 E7.52529
G1 X91.285 Y99.341 E7.53129
G1 X108.715 Y94.671 E8.39914
G1 X108.715 Y92.354 E8.51057
G1 X107.646 Y91.285 E8.58325
G1 X108.323 Y91.285 E8.61584
G1 X103.653 Y108.715 E9.48369
G1 X105.967 Y108.715 E9.59497
G1 E7.59497 F2400
G92 E0
G1 X95.351 Y108.715 F7800
G1 E2 F2400
G1 F4800
G1 X97.665 Y108.715 E2.11128
G1 X102.335 Y91.285 E2.97913
G1 X104.649 Y91.285 E3.09042
;LAYER_CHANGE
;Z:1.85
;HEIGHT:0.3
