; generated by PrusaSlicer 2.5.0 on 2026-02-28 at 22:03:48 UTC

; 

; external perimeters extrusion width = 0.45mm
; perimeters extrusion width = 0.45mm
; infill extrusion width = 0.45mm
; solid infill extrusion width = 0.45mm
; top infill extrusion width = 0.45mm
; first layer extrusion width = 0.42mm

M73 P0 R5
M107
;TYPE:Custom
M140 S0
M104 S0
START_PRINT EXTRUDER_TEMP=220 BED_TEMP=55
G21 ; set units to millimeters
G90 ; use absolute coordinates
M83 ; use relative distances for extrusion
; Filament-specific start gcode
M107
;LAYER_CHANGE
;Z:0.2
;HEIGHT:0.2
G1 Z.2 F36000
G1 E-.5 F2400
G1 X99.446 Y99.752 F36000
G1 E.5 F2400
M204 S2000
;TYPE:Skirt/Brim
;WIDTH:0.42
G1 F3000
G1 X99.931 Y99.299 E.02082
G1 X100.491 Y98.952 E.02065
G1 X101.112 Y98.719 E.0208
G1 X101.764 Y98.613 E.02073
G1 X118.138 Y98.608 E.51338
G1 X118.793 Y98.696 E.02073
G1 X119.416 Y98.908 E.02064
G1 X120.322 Y99.513 E.03415
G1 X120.758 Y100.008 E.02068
G1 X121.048 Y100.491 E.01765
G1 X121.364 Y101.533 E.03414
G1 X121.392 Y118.138 E.52065
G1 X121.18 Y119.203 E.03404
G1 X120.889 Y119.795 E.0207
G1 X120.554 Y120.248 E.01764
G1 X120.069 Y120.701 E.02082
G1 X119.42 Y121.09 E.02372
G1 X118.793 Y121.304 E.02078
G1 X118.021 Y121.395 E.02437
G1 X101.862 Y121.392 E.50666
G1 X100.797 Y121.18 E.03404
G1 X100.204 Y120.889 E.0207
G1 X99.752 Y120.554 E.01764
G1 X99.242 Y119.992 E.02381
G1 X98.91 Y119.42 E.02073
G1 X98.696 Y118.793 E.02078
G1 X98.605 Y118.021 E.02437
G1 X98.608 Y101.862 E.50666
G1 X98.82 Y100.797 E.03404
G1 X99.111 Y100.205 E.0207
G1 X99.41 Y99.801 E.01576
M204 S5000
G1 E-.5 F2400
G1 X101.753 Y101.773 F36000
G1 E.5 F2400
M204 S2000
;TYPE:Perimeter
;WIDTH:0.419999
G1 F3000
G1 X101.977 Y101.674 E.00769
G1 X117.922 Y101.669 E.49995
G1 X118.135 Y101.704 E.00677
G1 X118.264 Y101.816 E.00536
G1 X118.331 Y102.038 E.00725
G1 X118.331 Y117.922 E.49805
G1 X118.296 Y118.136 E.00677
G1 X118.184 Y118.264 E.00536
G1 X117.962 Y118.331 E.00725
G1 X102.078 Y118.331 E.49805
M73 P1 R5
G1 X101.864 Y118.296 E.00677
G1 X101.736 Y118.184 E.00536
G1 X101.669 Y117.962 E.00725
G1 X101.674 Y101.969 E.50146
G1 X101.73 Y101.829 E.00474
M204 S5000
G1 X101.412 Y101.594 F36000
M204 S2000
;TYPE:External perimeter
G1 F3000
G1 X101.653 Y101.378 E.01014
G1 X101.921 Y101.297 E.00879
G1 X117.922 Y101.292 E.5017
G1 X118.282 Y101.348 E.01143
G1 X118.504 Y101.496 E.00835
G1 X118.652 Y101.718 E.00835
G1 X118.708 Y102.001 E.00905
G1 X118.708 Y117.922 E.49921
G1 X118.652 Y118.282 E.01143
G1 X118.504 Y118.504 E.00835
G1 X118.282 Y118.652 E.00835
G1 X117.999 Y118.708 E.00905
G1 X102.078 Y118.708 E.49921
G1 X101.718 Y118.652 E.01143
G1 X101.496 Y118.504 E.00835
G1 X101.348 Y118.282 E.00835
G1 X101.292 Y117.999 E.00905
G1 X101.297 Y101.912 E.50441
G1 X101.392 Y101.65 E.00872
M204 S5000
G1 X101.735 Y101.606 F36000
G1 E-.5 F2400
G1 X118.217 Y102.679 F36000
G1 E.5 F2400
M204 S2000
;TYPE:Solid infill
;WIDTH:0.421813
G1 F3000
G1 X117.495 Y101.956 E.03218
G1 X116.959 Y101.956 E.01688
G1 X118.048 Y103.045 E.04849
G1 X118.048 Y103.581 E.01688
G1 X116.424 Y101.956 E.07237
G1 X115.888 Y101.956 E.01688
G1 X118.048 Y104.116 E.09624
G1 X118.048 Y104.652 E.01688
G1 X115.352 Y101.956 E.12011
G1 X114.816 Y101.956 E.01688
G1 X118.048 Y105.188 E.14399
G1 X118.048 Y105.724 E.01688
G1 X114.28 Y101.956 E.16786
G1 X113.744 Y101.956 E.01688
G1 X118.048 Y106.26 E.19174
G1 X118.048 Y106.796 E.01688
G1 X113.209 Y101.956 E.21561
M73 P2 R5
G1 X112.673 Y101.956 E.01688
G1 X118.048 Y107.331 E.23948
G1 X118.048 Y107.867 E.01688
G1 X112.137 Y101.956 E.26336
G1 X111.601 Y101.956 E.01688
G1 X118.048 Y108.403 E.28723
G1 X118.048 Y108.939 E.01688
G1 X111.065 Y101.956 E.3111
G1 X110.529 Y101.956 E.01688
G1 X118.048 Y109.475 E.33498
G1 X118.048 Y110.011 E.01688
G1 X109.994 Y101.957 E.35885
G1 X109.458 Y101.957 E.01688
G1 X118.048 Y110.547 E.38273
G1 X118.048 Y111.082 E.01688
G1 X108.922 Y101.957 E.4066
G1 X108.386 Y101.957 E.01688
G1 X118.048 Y111.618 E.43047
G1 X118.048 Y112.154 E.01688
G1 X107.85 Y101.957 E.45435
G1 X107.314 Y101.957 E.01688
G1 X118.048 Y112.69 E.47822
G1 X118.048 Y113.226 E.01688
G1 X106.779 Y101.957 E.5021
M73 P3 R5
G1 X106.243 Y101.957 E.01688
G1 X118.048 Y113.762 E.52597
G1 X118.048 Y114.297 E.01688
G1 X105.707 Y101.957 E.54984
G1 X105.171 Y101.957 E.01688
G1 X118.048 Y114.833 E.57372
G1 X118.048 Y115.369 E.01688
G1 X104.635 Y101.957 E.59759
G1 X104.1 Y101.957 E.01688
G1 X118.048 Y115.905 E.62146
G1 X118.048 Y116.441 E.01688
G1 X103.564 Y101.957 E.64534
G1 X103.028 Y101.957 E.01688
G1 X118.048 Y116.977 E.66921
G1 X118.048 Y117.512 E.01688
G1 X102.492 Y101.957 E.69309
M73 P4 R5
G1 X102.022 Y101.957 E.01479
G1 X101.975 Y101.975 E.00162
G1 X118.02 Y118.021 E.71491
G1 X117.93 Y118.048 E.00297
G1 X117.512 Y118.048 E.01318
G1 X101.956 Y102.493 E.69306
G1 X101.956 Y103.028 E.01688
G1 X116.976 Y118.048 E.66919
G1 X116.44 Y118.048 E.01688
G1 X101.956 Y103.564 E.64532
G1 X101.956 Y104.1 E.01688
G1 X115.904 Y118.048 E.62145
G1 X115.368 Y118.048 E.01688
G1 X101.956 Y104.635 E.59759
G1 X101.956 Y105.171 E.01688
G1 X114.832 Y118.048 E.57372
G1 X114.297 Y118.048 E.01688
G1 X101.956 Y105.707 E.54985
M73 P5 R5
G1 X101.955 Y106.243 E.01688
G1 X113.761 Y118.048 E.52598
G1 X113.225 Y118.048 E.01688
G1 X101.955 Y106.778 E.50212
G1 X101.955 Y107.314 E.01688
G1 X112.689 Y118.048 E.47825
G1 X112.153 Y118.048 E.01688
G1 X101.955 Y107.85 E.45438
G1 X101.955 Y108.385 E.01688
G1 X111.617 Y118.048 E.43051
G1 X111.082 Y118.048 E.01688
G1 X101.955 Y108.921 E.40665
G1 X101.955 Y109.457 E.01688
G1 X110.546 Y118.048 E.38278
G1 X110.01 Y118.048 E.01688
G1 X101.954 Y109.992 E.35891
G1 X101.954 Y110.528 E.01688
G1 X109.474 Y118.048 E.33504
G1 X108.938 Y118.048 E.01688
G1 X101.954 Y111.064 E.31118
M73 P6 R5
G1 X101.954 Y111.599 E.01688
G1 X108.402 Y118.048 E.28731
G1 X107.867 Y118.048 E.01688
G1 X101.954 Y112.135 E.26344
G1 X101.954 Y112.671 E.01688
G1 X107.331 Y118.048 E.23957
G1 X106.795 Y118.048 E.01688
G1 X101.954 Y113.206 E.21571
G1 X101.953 Y113.742 E.01688
G1 X106.259 Y118.048 E.19184
G1 X105.723 Y118.048 E.01688
G1 X101.953 Y114.278 E.16797
G1 X101.953 Y114.814 E.01688
G1 X105.187 Y118.048 E.1441
G1 X104.652 Y118.048 E.01688
G1 X101.953 Y115.349 E.12024
G1 X101.953 Y115.885 E.01688
G1 X104.116 Y118.048 E.09637
G1 X103.58 Y118.048 E.01688
G1 X101.953 Y116.421 E.0725
G1 X101.952 Y116.956 E.01688
G1 X103.044 Y118.048 E.04863
G1 X102.508 Y118.048 E.01688
G1 X101.783 Y117.322 E.03232
M204 S5000
M106 S127.5
;LAYER_CHANGE
;Z:0.4
;HEIGHT:0.2
G1 Z.4 F36000
M140 S55 ; set bed temperature
G1 E-.5 F2400
G1 X101.739 Y101.88 F36000
G1 E.5 F2400
;TYPE:Perimeter
;WIDTH:0.449999
G1 F9702
G1 X101.882 Y101.746 E.00664
G1 X102.256 Y101.686 E.01284
G1 X117.85 Y101.686 E.52784
G1 X118.089 Y101.725 E.00818
G1 X118.238 Y101.855 E.00671
G1 X118.314 Y102.104 E.00881
G1 X118.314 Y117.85 E.53299
G1 X118.275 Y118.089 E.00818
G1 X118.145 Y118.238 E.00671
G1 X117.896 Y118.314 E.00881
G1 X102.15 Y118.314 E.53299
G1 X101.911 Y118.275 E.00818
G1 X101.762 Y118.145 E.00671
G1 X101.686 Y117.896 E.00881
G1 X101.691 Y102.097 E.53477
G1 X101.726 Y101.939 E.00548
G1 X101.422 Y101.625 F36000
;TYPE:External perimeter
G1 F9702
G1 X101.561 Y101.456 E.00742
G1 X101.822 Y101.316 E.01
G1 X102.238 Y101.279 E.01415
G1 X117.85 Y101.279 E.52846
G1 X118.248 Y101.341 E.01362
G1 X118.494 Y101.506 E.01003
G1 X118.659 Y101.752 E.01003
G1 X118.721 Y102.064 E.01076
G1 X118.721 Y117.85 E.53435
G1 X118.659 Y118.248 E.01362
G1 X118.494 Y118.494 E.01003
G1 X118.248 Y118.659 E.01003
G1 X117.936 Y118.721 E.01076
G1 X102.15 Y118.721 E.53435
G1 X101.752 Y118.659 E.01362
G1 X101.506 Y118.494 E.01003
M73 P7 R5
G1 X101.341 Y118.248 E.01003
G1 X101.279 Y117.936 E.01076
G1 X101.284 Y101.978 E.54015
G1 X101.384 Y101.672 E.01092
G1 X101.641 Y101.612 F36000
G1 E-.5 F2400
G1 X118.192 Y117.192 F36000
G1 E.5 F2400
M204 S10000
;TYPE:Solid infill
;WIDTH:0.453482
G1 F9702
G1 X117.375 Y118.009 E.03941
G1 X116.795 Y118.009 E.01982
G1 X118.009 Y116.795 E.0586
G1 X118.009 Y116.214 E.01982
G1 X116.214 Y118.009 E.08663
G1 X115.633 Y118.009 E.01982
G1 X118.009 Y115.633 E.11467
G1 X118.009 Y115.053 E.01982
G1 X115.053 Y118.009 E.1427
G1 X114.472 Y118.009 E.01982
G1 X118.009 Y114.472 E.17073
G1 X118.009 Y113.892 E.01982
G1 X113.892 Y118.009 E.19876
G1 X113.311 Y118.009 E.01982
G1 X118.009 Y113.311 E.22679
G1 X118.009 Y112.73 E.01982
G1 X112.73 Y118.009 E.25482
G1 X112.15 Y118.009 E.01982
G1 X118.009 Y112.15 E.28286
G1 X118.009 Y111.569 E.01982
G1 X111.569 Y118.009 E.31089
G1 X110.988 Y118.009 E.01982
G1 X118.009 Y110.988 E.33892
G1 X118.009 Y110.408 E.01982
G1 X110.408 Y118.009 E.36695
G1 X109.827 Y118.009 E.01982
G1 X118.009 Y109.827 E.39498
G1 X118.009 Y109.247 E.01982
G1 X109.247 Y118.009 E.42302
G1 X108.666 Y118.009 E.01982
G1 X118.009 Y108.666 E.45105
G1 X118.009 Y108.085 E.01982
G1 X108.085 Y118.009 E.47908
G1 X107.505 Y118.009 E.01982
G1 X118.009 Y107.505 E.50711
G1 X118.009 Y106.924 E.01982
G1 X106.924 Y118.009 E.53514
M73 P8 R5
G1 X106.343 Y118.009 E.01982
G1 X118.009 Y106.343 E.56317
G1 X118.009 Y105.763 E.01982
G1 X105.763 Y118.009 E.59121
G1 X105.182 Y118.009 E.01982
G1 X118.009 Y105.182 E.61924
G1 X118.009 Y104.602 E.01982
G1 X104.602 Y118.009 E.64727
G1 X104.021 Y118.009 E.01982
G1 X118.009 Y104.021 E.6753
G1 X118.009 Y103.44 E.01982
G1 X103.44 Y118.009 E.70333
G1 X102.86 Y118.009 E.01982
G1 X118.009 Y102.86 E.73137
G1 X118.009 Y102.279 E.01982
G1 X102.279 Y118.009 E.7594
G1 X102.134 Y118.009 E.00495
G1 X102.019 Y117.981 E.00403
G1 X101.992 Y117.866 E.00403
G1 X101.992 Y117.715 E.00514
G1 X117.711 Y101.996 E.7589
G1 X117.13 Y101.996 E.01982
G1 X101.992 Y117.135 E.73087
G1 X101.992 Y116.554 E.01983
G1 X116.55 Y101.996 E.70284
G1 X115.969 Y101.996 E.01982
G1 X101.992 Y115.973 E.67481
G1 X101.992 Y115.392 E.01983
G1 X115.389 Y101.996 E.64677
G1 X114.808 Y101.995 E.01982
G1 X101.992 Y114.811 E.61874
M73 P9 R5
G1 X101.993 Y114.231 E.01983
G1 X114.228 Y101.995 E.59071
G1 X113.648 Y101.995 E.01982
G1 X101.993 Y113.65 E.56268
G1 X101.993 Y113.069 E.01983
G1 X113.067 Y101.995 E.53465
G1 X112.487 Y101.995 E.01982
G1 X101.993 Y112.488 E.50662
G1 X101.993 Y111.908 E.01983
G1 X111.906 Y101.995 E.47859
G1 X111.326 Y101.994 E.01982
G1 X101.993 Y111.327 E.45056
G1 X101.994 Y110.746 E.01983
G1 X110.745 Y101.994 E.42252
G1 X110.165 Y101.994 E.01982
G1 X101.994 Y110.165 E.39449
G1 X101.994 Y109.584 E.01983
G1 X109.584 Y101.994 E.36646
G1 X109.004 Y101.994 E.01982
G1 X101.994 Y109.004 E.33843
G1 X101.994 Y108.423 E.01983
G1 X108.424 Y101.993 E.3104
G1 X107.843 Y101.993 E.01982
G1 X101.995 Y107.842 E.28237
G1 X101.995 Y107.261 E.01983
G1 X107.263 Y101.993 E.25434
G1 X106.682 Y101.993 E.01982
G1 X101.995 Y106.68 E.22631
G1 X101.995 Y106.1 E.01983
G1 X106.102 Y101.993 E.19827
G1 X105.521 Y101.993 E.01982
G1 X101.995 Y105.519 E.17024
G1 X101.995 Y104.938 E.01983
G1 X104.941 Y101.992 E.14221
G1 X104.361 Y101.992 E.01982
G1 X101.996 Y104.357 E.11418
G1 X101.996 Y103.776 E.01983
G1 X103.78 Y101.992 E.08615
G1 X103.2 Y101.992 E.01982
G1 X101.996 Y103.196 E.05812
G1 X101.996 Y102.615 E.01983
G1 X102.802 Y101.808 E.03893
M204 S5000
M106 S255
;LAYER_CHANGE
;Z:0.6
;HEIGHT:0.2
M73 P10 R5
G1 Z.6 F36000
G1 X102.204 Y101.758
;TYPE:Perimeter
;WIDTH:0.449999
G1 F9383
G1 X117.787 Y101.758 E.52749
G1 X118.022 Y101.795 E.00803
G1 X118.168 Y101.923 E.00657
G1 X118.242 Y102.168 E.00866
G1 X118.242 Y117.787 E.52868
G1 X118.204 Y118.022 E.00805
G1 X118.077 Y118.168 E.00656
G1 X117.832 Y118.242 E.00866
G1 X102.213 Y118.242 E.52868
G1 X101.978 Y118.204 E.00805
G1 X101.832 Y118.077 E.00656
G1 X101.758 Y117.832 E.00866
G1 X101.758 Y102.213 E.52868
G1 X101.796 Y101.978 E.00805
G1 X101.923 Y101.832 E.00656
G1 X102.145 Y101.765 E.00783
G1 X102.204 Y101.351 F36000
;TYPE:External perimeter
G1 F9383
G1 X117.787 Y101.351 E.52749
G1 X118.181 Y101.412 E.01347
G1 X118.425 Y101.575 E.00994
G1 X118.588 Y101.819 E.00993
G1 X118.649 Y102.128 E.01066
G1 X118.649 Y117.787 E.53004
G1 X118.588 Y118.181 E.01349
G1 X118.425 Y118.425 E.00993
G1 X118.181 Y118.588 E.00993
G1 X117.872 Y118.649 E.01066
G1 X102.213 Y118.649 E.53004
G1 X101.819 Y118.588 E.01349
G1 X101.575 Y118.425 E.00993
G1 X101.412 Y118.181 E.00993
G1 X101.351 Y117.872 E.01066
G1 X101.351 Y102.213 E.53004
G1 X101.412 Y101.819 E.01349
G1 X101.575 Y101.575 E.00993
G1 X101.819 Y101.412 E.00993
G1 X102.144 Y101.351 E.01117
G1 X102.442 Y101.672 F36000
G1 E-.5 F2400
G1 X118.12 Y102.314 F36000
G1 E.5 F2400
M204 S10000
;TYPE:Solid infill
;WIDTH:0.456874
G1 F9383
G1 X117.886 Y102.08 E.01139
G1 X117.805 Y102.063 E.00283
G1 X117.284 Y102.063 E.01793
G1 X117.937 Y102.716 E.03175
G1 X117.937 Y103.301 E.02015
G1 X116.699 Y102.063 E.06025
G1 X116.114 Y102.063 E.02015
G1 X117.937 Y103.887 E.08875
G1 X117.937 Y104.472 E.02015
G1 X115.528 Y102.063 E.11725
G1 X114.943 Y102.063 E.02015
G1 X117.937 Y105.058 E.14574
G1 X117.937 Y105.643 E.02015
G1 X114.357 Y102.063 E.17424
G1 X113.772 Y102.063 E.02015
G1 X117.937 Y106.228 E.20274
G1 X117.937 Y106.814 E.02015
G1 X113.186 Y102.063 E.23124
G1 X112.601 Y102.063 E.02015
G1 X117.937 Y107.399 E.25973
G1 X117.937 Y107.985 E.02015
G1 X112.016 Y102.063 E.28823
G1 X111.43 Y102.063 E.02015
G1 X117.937 Y108.57 E.31673
G1 X117.937 Y109.155 E.02015
G1 X110.845 Y102.063 E.34523
M73 P11 R5
G1 X110.259 Y102.063 E.02015
G1 X117.937 Y109.741 E.37372
G1 X117.937 Y110.326 E.02015
G1 X109.674 Y102.063 E.40222
G1 X109.088 Y102.063 E.02015
G1 X117.937 Y110.912 E.43072
G1 X117.937 Y111.497 E.02015
G1 X108.503 Y102.063 E.45921
G1 X107.918 Y102.063 E.02015
G1 X117.937 Y112.083 E.48771
M73 P11 R4
G1 X117.937 Y112.668 E.02015
G1 X107.332 Y102.063 E.51621
G1 X106.747 Y102.063 E.02015
G1 X117.937 Y113.253 E.54471
G1 X117.937 Y113.839 E.02015
G1 X106.161 Y102.063 E.5732
G1 X105.576 Y102.063 E.02015
G1 X117.937 Y114.424 E.6017
G1 X117.937 Y115.01 E.02015
G1 X104.99 Y102.063 E.6302
G1 X104.405 Y102.063 E.02015
G1 X117.937 Y115.595 E.6587
G1 X117.937 Y116.18 E.02015
G1 X103.82 Y102.063 E.68719
G1 X103.234 Y102.063 E.02015
G1 X117.937 Y116.766 E.71569
G1 X117.937 Y117.351 E.02015
G1 X102.649 Y102.063 E.74419
G1 X102.198 Y102.063 E.01551
G1 X102.108 Y102.081 E.00318
G1 X102.094 Y102.094 E.00064
G1 X117.906 Y117.906 E.76965
M73 P12 R4
G1 X117.802 Y117.937 E.00373
G1 X117.351 Y117.937 E.01551
G1 X102.063 Y102.649 E.74419
G1 X102.063 Y103.234 E.02015
G1 X116.766 Y117.937 E.71569
G1 X116.18 Y117.937 E.02015
G1 X102.063 Y103.82 E.68719
G1 X102.063 Y104.405 E.02015
G1 X115.595 Y117.937 E.6587
G1 X115.01 Y117.937 E.02015
G1 X102.063 Y104.99 E.6302
G1 X102.063 Y105.576 E.02015
G1 X114.424 Y117.937 E.6017
G1 X113.839 Y117.937 E.02015
G1 X102.063 Y106.161 E.5732
G1 X102.063 Y106.747 E.02015
G1 X113.253 Y117.937 E.54471
G1 X112.668 Y117.937 E.02015
G1 X102.063 Y107.332 E.51621
G1 X102.063 Y107.917 E.02015
G1 X112.083 Y117.937 E.48771
G1 X111.497 Y117.937 E.02015
G1 X102.063 Y108.503 E.45922
G1 X102.063 Y109.088 E.02015
G1 X110.912 Y117.937 E.43072
G1 X110.326 Y117.937 E.02015
G1 X102.063 Y109.674 E.40222
G1 X102.063 Y110.259 E.02015
G1 X109.741 Y117.937 E.37373
G1 X109.155 Y117.937 E.02015
G1 X102.063 Y110.845 E.34523
G1 X102.063 Y111.43 E.02015
G1 X108.57 Y117.937 E.31673
M73 P13 R4
G1 X107.985 Y117.937 E.02015
G1 X102.063 Y112.015 E.28824
G1 X102.063 Y112.601 E.02015
G1 X107.399 Y117.937 E.25974
G1 X106.814 Y117.937 E.02015
G1 X102.063 Y113.186 E.23124
G1 X102.063 Y113.772 E.02015
G1 X106.228 Y117.937 E.20274
G1 X105.643 Y117.937 E.02015
G1 X102.063 Y114.357 E.17425
G1 X102.063 Y114.943 E.02015
G1 X105.057 Y117.937 E.14575
G1 X104.472 Y117.937 E.02015
G1 X102.063 Y115.528 E.11725
G1 X102.063 Y116.113 E.02015
G1 X103.887 Y117.937 E.08876
G1 X103.301 Y117.937 E.02015
G1 X102.063 Y116.699 E.06026
G1 X102.063 Y117.284 E.02015
G1 X102.716 Y117.937 E.03176
G1 X102.198 Y117.937 E.01782
G1 X102.114 Y117.92 E.00297
G1 X101.88 Y117.686 E.01136
M204 S5000
;LAYER_CHANGE
;Z:0.8
;HEIGHT:0.2
G1 Z.8 F36000
G1 E-.5 F2400
G1 X102.27 Y101.83 F36000
G1 E.5 F2400
;TYPE:Perimeter
;WIDTH:0.449999
G1 F8484
G1 X117.724 Y101.83 E.52308
G1 X117.955 Y101.867 E.00792
G1 X118.097 Y101.992 E.00641
G1 X118.17 Y102.232 E.00851
